client/src/asserts/icons/icn_delivery.svg

<svg width="16" height="16" viewBox="0 0 16 16" fill="#4B4B7C" xmlns="http://www.w3.org/2000/svg">
<path fill-rule="evenodd" clip-rule="evenodd" d="M11.1464 2.14645C11.0527 2.05268 10.9255 2 10.7929 2H10H9C8.44771 2 8 2.44772 8 3C8 3.55228 8.44771 4 9 4H9.5C9.77614 4 10 4.22386 10 4.5V7V8.13908C10 9.37496 8.89027 10.315 7.6712 10.1119L7.4178 10.0696C7.17671 10.0295 7 9.82086 7 9.57644V8.5C7 8.22386 6.77614 8 6.5 8H2.20711C2.0745 8 1.94665 8.0521 1.85577 8.14867C0.665528 9.41333 0 11.0866 0 12.8284C0 12.9232 0.0768157 13 0.171573 13H1.5C1.77614 13 1.99359 13.2273 2.06171 13.4949C2.28197 14.3601 3.06626 15 4 15C4.93374 15 5.71803 14.3601 5.93829 13.4949C6.00641 13.2273 6.22386 13 6.5 13H9.5C9.77614 13 9.99359 13.2273 10.0617 13.4949C10.282 14.3601 11.0663 15 12 15C12.9337 15 13.718 14.3601 13.9383 13.4949C14.0064 13.2273 14.2239 13 14.5 13H15.5C15.7761 13 16.0031 12.7753 15.9701 12.5012C15.7798 10.9187 14.6939 9.56465 13.1539 9.05132C13.057 9.01901 12.981 8.94296 12.9487 8.84605L12.1371 6.41139C12.0584 6.17534 12.1653 5.91735 12.3879 5.80607L12.759 5.62048C13.3695 5.31523 13.5016 4.50158 13.0189 4.01894L11.1464 2.14645ZM2.5 3C2.22386 3 2 3.22386 2 3.5V6.5C2 6.77614 2.22386 7 2.5 7H5.5C5.77614 7 6 6.77614 6 6.5V3.5C6 3.22386 5.77614 3 5.5 3H2.5ZM5 13C5 13.5523 4.55228 14 4 14C3.44772 14 3 13.5523 3 13C3 12.4477 3.44772 12 4 12C4.55228 12 5 12.4477 5 13ZM12 14C12.5523 14 13 13.5523 13 13C13 12.4477 12.5523 12 12 12C11.4477 12 11 12.4477 11 13C11 13.5523 11.4477 14 12 14Z" />
</svg>

<svg width="16" height="16" viewBox="0 0 16 16" fill="#4B4B7C" xmlns="http://www.w3.org/2000/svg"><path fill-rule="evenodd" clip-rule="evenodd" d="M11.146 2.146c-.094-.094-.221-.146-.354-.146h-1.7930000000000001c-.552 0-1 .448-1 1s.448 1 1 1h.5c.276 0 .5.224.5.5v3.6390000000000002c0 1.236-1.11 2.176-2.329 1.973l-.253-.042c-.241-.04-.418-.249-.418-.493v-1.076c0-.276-.224-.5-.5-.5h-4.293c-.133 0-.26.052-.351.149-1.19 1.265-1.856 2.938-1.856 4.68 0 .095.077.172.172.172h1.328c.276 0 .494.227.562.495.22.865 1.005 1.505 1.938 1.505.934 0 1.718-.64 1.938-1.505.068-.268.286-.495.562-.495h3c.276 0 .494.227.562.495.22.865 1.005 1.505 1.938 1.505.934 0 1.718-.64 1.938-1.505.068-.268.286-.495.562-.495h1c.276 0 .503-.225.47-.499-.19-1.583-1.276-2.937-2.816-3.45-.097-.032-.173-.108-.205-.205l-.812-2.435c-.079-.236.028-.494.251-.605l.371-.186c.611-.305.743-1.119.26-1.602l-1.873-1.872zm-8.646.854c-.276 0-.5.224-.5.5v3c0 .276.224.5.5.5h3c.276 0 .5-.224.5-.5v-3c0-.276-.224-.5-.5-.5h-3zm2.5 10c0 .552-.448 1-1 1s-1-.448-1-1 .448-1 1-1 1 .448 1 1zm7 1c.552 0 1-.448 1-1s-.448-1-1-1-1 .448-1 1 .448 1 1 1z"/></svg>
